X: 38423
T: Star, The
R: hornpipe
M: 4/4
K: Gmajor
|:Bc|d2ef gdBA|GFGB D2GF|EcEc DBDB|(3cBA BG A2Bc|
d2ef gdBA|GFGB D2EF|GBdc BAGF|A2G2 G2:|
|:cB|AGAB cBcd|edef g2gf|edcB cBAG|F2D2 D2Bc|
d2ef gdBA|GFGB D2EF|GBdc BAGF|A2G2 G2:|

